dist/svg/u1F68C.svg

<?xml version="1.0" encoding="UTF-8"?><svg id="Layer_1" xmlns="http://www.w3.org/2000/svg" viewBox="0 0 40 40"><g><g style="opacity:0;"><rect width="40" height="40" style="fill:none;"/></g><g><path d="M33.86633,6.68213H6.13367c-2.20914,0-4,1.79086-4,4V29.09033c0,1.10457,.89543,2,2,2h31.73267c1.10457,0,2-.89543,2-2V10.68213c0-2.20914-1.79086-4-4-4Z" style="fill:#ffb72d;"/><path d="M37.86633,23.46615H2.13367v5.62418c0,1.10457,.89543,2,2,2h31.73267c1.10457,0,2-.89543,2-2v-5.62418Z" style="fill:#ff8f00;"/><g><circle cx="8.37154" cy="30.80271" r="4.275" style="fill:#313d4c;"/><circle cx="8.37154" cy="30.80271" r="1.71" style="fill:#6b7683;"/></g><g><circle cx="31.23861" cy="30.80271" r="4.275" style="fill:#313d4c;"/><circle cx="31.23861" cy="30.80271" r="1.71" style="fill:#6b7683;"/></g><path d="M37.86632,27.70372c-.65591,0-1.1875-.53159-1.1875-1.1875s.53159-1.1875,1.1875-1.1875v2.375Z" style="fill:#fff;"/></g></g><path d="M6.1733,10.53208h11.69075v8.30991H6.1733c-.62875,0-1.13922-.51047-1.13922-1.13922v-6.03148c0-.62875,.51047-1.13922,1.13922-1.13922Z" style="fill:#313d4c;"/><path d="M19.27643,10.53208h11.69075c.62875,0,1.13922,.51047,1.13922,1.13922v6.03148c0,.62875-.51047,1.13922-1.13922,1.13922h-11.69075V10.53208h0Z" style="fill:#313d4c;"/><path d="M35.31405,10.53208h2.55228v11.30991h-2.55228c-.62875,0-1.13922-.51047-1.13922-1.13922V11.6713c0-.62875,.51047-1.13922,1.13922-1.13922Z" style="fill:#313d4c;"/></svg>

<svg id="Layer_1" data-name="Layer 1" xmlns="http://www.w3.org/2000/svg" viewBox="0 0 40 40"><defs><style>.cls-1{fill:none;opacity:0;}.cls-2{fill:#ffb72d;}.cls-3{fill:#ff8f00;}.cls-4{fill:#313d4c;}.cls-5{fill:#6b7683;}.cls-6{fill:#fff;}</style></defs><rect class="cls-1" width="40" height="40"/><path class="cls-2" d="M33.866,6.682H6.134a4,4,0,0,0-4,4V29.09a2,2,0,0,0,2,2H35.866a2,2,0,0,0,2-2V10.682A4,4,0,0,0,33.866,6.682Z"/><path class="cls-3" d="M37.866,23.466H2.134V29.09a2,2,0,0,0,2,2H35.866a2,2,0,0,0,2-2Z"/><circle class="cls-4" cx="8.372" cy="30.803" r="4.275"/><circle class="cls-5" cx="8.372" cy="30.803" r="1.71"/><circle class="cls-4" cx="31.239" cy="30.803" r="4.275"/><circle class="cls-5" cx="31.239" cy="30.803" r="1.71"/><path class="cls-6" d="M37.866,27.7a1.188,1.188,0,0,1,0-2.375Z"/><path class="cls-4" d="M6.173,10.532H17.864a0,0,0,0,1,0,0v8.31a0,0,0,0,1,0,0H6.173A1.139,1.139,0,0,1,5.034,17.7V11.671A1.139,1.139,0,0,1,6.173,10.532Z"/><path class="cls-4" d="M19.276,10.532H30.967a1.139,1.139,0,0,1,1.139,1.139V17.7a1.139,1.139,0,0,1-1.139,1.139H19.276a0,0,0,0,1,0,0v-8.31A0,0,0,0,1,19.276,10.532Z"/><path class="cls-4" d="M35.314,10.532h2.552a0,0,0,0,1,0,0v11.31a0,0,0,0,1,0,0H35.314A1.139,1.139,0,0,1,34.175,20.7V11.671A1.139,1.139,0,0,1,35.314,10.532Z"/></svg>
